svg/book_settings_outline.svg

<svg xmlns="http://www.w3.org/2000/svg" viewBox="0 0 24 24"><path d="M18 0H6C4.89 0 4 .895 4 2v16c0 1.11.89 2 2 2h12c1.11 0 2-.89 2-2V2c0-1.105-.89-2-2-2m0 18H6V2h2v8l2.5-2.25L13 10V2h5zM7 22h2v2H7zm4 0h2v2h-2zm4 0h2v2h-2z"/></svg>

<?xml version="1.0" encoding="UTF-8"?><!DOCTYPE svg PUBLIC "-//W3C//DTD SVG 1.1//EN" "http://www.w3.org/Graphics/SVG/1.1/DTD/svg11.dtd"><svg xmlns="http://www.w3.org/2000/svg" xmlns:xlink="http://www.w3.org/1999/xlink" version="1.1" id="mdi-book-settings-outline" width="24" height="24" viewBox="0 0 24 24"><path d="M18 0H6C4.89 0 4 .895 4 2V18C4 19.11 4.89 20 6 20H18C19.11 20 20 19.11 20 18V2C20 .895 19.11 0 18 0M18 18H6V2H8V10L10.5 7.75L13 10V2H18V18M7 22H9V24H7V22M11 22H13V24H11V22M15 22H17V24H15V22Z" /></svg>
